X: 3
T: The New Custom House
R: reel
M: 4/4
L: 1/8
K: Emix
BEGE GABc | d2 AF DFAd | BE E/E/E GABc | d/e/d fd efdc |BE G/F/E G2 A/B/c | d2 AF DFAd | BE E/E/E G2 A/B/c | dBAF E2 :|BeGe Bege | f2 dB fgaf | Be e/e/e Begb | ag f/e/d geGA |Be e/e/e BeGe | fd d/d/d fg a/g/f | b2 a/g/f ebbe | fbba f2 :|


Tune 175	Setting 23268

